raw/symbols/bnb.svg

<svg width="42" height="42" viewBox="0 0 42 42" fill="none" xmlns="http://www.w3.org/2000/svg">
<circle cx="21" cy="21" r="21" fill="#F0B90B"/>
<path d="M13.6321 11.2547L21 7L28.368 11.2547L25.6591 12.8266L21 10.1436L16.3409 12.8266L13.6321 11.2547ZM28.368 16.6206L25.6591 15.0488L21 17.7317L16.3409 15.0488L13.6321 16.6206V19.7642L18.2912 22.4472V27.813L21 29.3849L23.7088 27.813V22.4472L28.368 19.7642V16.6206ZM28.368 25.1302V21.9865L25.6591 23.5583V26.7019L28.368 25.1302ZM30.2912 26.2413L25.632 28.9241V32.0679L33 27.813V19.3035L30.2912 20.8754V26.2413ZM27.5825 13.9377L30.2912 15.5095V18.6531L33 17.0813V13.9377L30.2912 12.3659L27.5825 13.9377ZM18.2912 30.0624V33.2061L21 34.7778L23.7088 33.2061V30.0624L21 31.6342L18.2912 30.0624ZM13.6321 25.1302L16.3409 26.7019V23.5583L13.6321 21.9865V25.1302ZM18.2912 13.9377L21 15.5095L23.7088 13.9377L21 12.3659L18.2912 13.9377ZM11.7088 15.5095L14.4176 13.9377L11.7088 12.3659L9 13.9377V17.0813L11.7088 18.6531V15.5095ZM11.7088 20.8754L9 19.3035V27.813L16.3679 32.0679V28.9241L11.7088 26.2413V20.8754Z" fill="#F3F3F3"/>
</svg>

<svg xmlns="http://www.w3.org/2000/svg" width="42" height="42" fill="none"><circle cx="21" cy="21" r="21" fill="#F0B90B"/><path fill="#F3F3F3" d="M13.632 11.255 21 7l7.368 4.255-2.709 1.572L21 10.144l-4.66 2.683-2.708-1.572Zm14.736 5.366-2.709-1.572L21 17.732l-4.66-2.683-2.708 1.572v3.143l4.66 2.683v5.366L21 29.385l2.709-1.572v-5.366l4.659-2.683v-3.143Zm0 8.51v-3.145l-2.709 1.572v3.144l2.709-1.572Zm1.923 1.11-4.659 2.683v3.144L33 27.813v-8.51l-2.709 1.572v5.366Zm-2.709-12.303 2.71 1.571v3.144L33 17.081v-3.143l-2.709-1.572-2.709 1.572Zm-9.29 16.124v3.144L21 34.778l2.709-1.572v-3.144L21 31.634l-2.709-1.572Zm-4.66-4.932 2.709 1.572v-3.144l-2.709-1.572v3.144Zm4.66-11.192L21 15.509l2.709-1.571L21 12.366l-2.709 1.572Zm-6.583 1.571 2.709-1.571-2.71-1.572L9 13.938v3.143l2.709 1.572V15.51Zm0 5.366L9 19.303v8.51l7.368 4.255v-3.144l-4.66-2.683v-5.366Z"/></svg>
